X:1
T:James Gibb editions
T:Psalm 3 (Becker) - Schütz
%%score [ ( 1 2 ) ( 3 4 ) ]
L:1/8
Q:1/4=108
M:2/2
K:C
V:1 treble nm="Soprano Alto"
V:2 treble 
V:3 bass nm="Tenor Bass"
V:4 bass 
V:1
"^Cornelius Becker\n(1561-1604)""^Heinrich Schütz\n(1585-1672)""^Psalm 3, SWV 99" A4 G2 F2 | %1
w: ~Ach wie groß|
w: |
w: Viel sa- gen|
 E4 A4 | A2 ^G2 A4 | c4 B2 A2 | ^G2 G2 A2 B2 |[M:2/2] c2 c2 d4 | G8 :| c4 B2 A2 | B4 d4 | %9
w: ist der|Fein- de Rott,|mein treu- er|Gott, di ~sich wid'r|mich em- pö-|ret.|||
w: ||||||Al- lein du|bist mein|
w: zu der|See- len mein,|es könnt nicht|sein, daß du ihr|Hülf ge- wäh-|rest.|||
 c2 B2 A4 | F4 A2 G2 | F2 E2 F2 G2 | E2 F2 G2 A2 | B2 c2 B4 | A8 |] %15
w: |mein Zu- ver-|sicht, der mich auf-|richt't und hoch mich|bringt zu Eh-|ren.|
w: Schild ge- wiß,||||||
w: ||||||
V:2
 E4 E2 D2 | B,4 A,4 | F2 E2 E4 | E4 E2 E2 | E2 E2 E2 E2 |[M:2/2] A2 ^G2 F4 | E8 :| E4 D2 D2 | %8
 D4 G4 | E2 E2 E4 | D4 C2 E2 | D2 ^C2 D2 D2 | ^C2 D2 E2 =C2 | E2 E2 E4 | E8 |] %15
V:3
 C4 C2 A,2 | G,4 C4 | D2 B,2 A,4 | A,4 B,2 C2 | B,2 B,2 C2 B,2 |[M:2/2] A,2 C4 B,2 | C8 :| %7
 G,4 G,2 ^F,2 | G,4 B,4 | A,2 ^G,2 A,4 | %10
"^2. Mit meiner Stimm ruf ich zu dir, dein Hülf kommt mir\nvon deinem heil'gen Throne. Darum weil du, Herr, hältest mich,\nschlaf und wach ich ganz Furcht und Sorgen ohne,\nob gleich der Feind viel tausend seind, die rings herüm mit Ungestüm\ngrausam wider mich toben.\n \n3. Auf, Herr, steh auf, beweis dein Kraft, die mir Hülf schafft,\ngib Backenstreich den Feinden, zerschmetter der Gottlosen Zähn,\ndaß sie vergeh'n, errett dein Volk und G'meinde!\nDu bist der Gott, der holft aus Not und Segen gibt zu jeder Frist\ndein'm Volk und lieben Freunden." A,4 A,2 C2 | %11
 A,2 A,2 A,2 _B,2 | A,2 A,2 C2 A,2 | ^G,2 A,4 !courtesy!^G,2 | A,8 |] %15
V:4
 A,,4 C,2 D,2 | E,4 F,4 | D,2 E,2 A,,4 | A,4 ^G,2 A,2 | E,2 E,2 A,2 G,2 |[M:2/2] F,2 E,2 D,4 | %6
 C,8 :| C,4 G,,2 D,2 | G,,4 G,,4 | A,,2 E,2 A,,4 | D,4 F,2 C,2 | D,2 A,,2 D,2 G,,2 | %12
 A,,2 D,2 C,2 F,2 | E,2 A,,2 E,4 | A,,8 |] %15

